X:1
T:Hide God’s Word in Your Heart
T:Robert Harkness, 1909
T:Hide God’s Word in Your Heart
T:Public Domain
T:Public Domain
C:Robert Harkness, 1909
Z:Public Domain
%%score ( 1 2 ) ( 3 4 )
L:1/8
M:4/4
K:Bb
V:1 treble 
V:2 treble 
V:3 bass 
V:4 bass 
V:1
 [DB]2 [EB]2 [DB]2 [FA]>[EG] | [DF]6 ([B,D][CE]) | [DF]2 [FB]2 [EB]2 [EA]2 | [DB]6 [DF]2 | %4
w: 1.~Hide God’s Word in your|heart, Its *|pre- cious truth be-|lieve; At|
w: 2.~Hide God’s Word in your|heart, If *|you would grow in|grace, And|
w: 3.~Hide God’s Word in your|heart, And *|seek the Spir- it’s|pow’r To|
w: 4.~Hide God’s Word in your|heart, And, *|hav- ing hid- den|well, Seek|
w: 5.~Hide God’s Word in your|heart, Each *|day a verse re-|peat; Tho’|
 [EG]2 [EG]2 [EB]3 [EG] | [DF]2 [EG]2 [DF]2 [FG]2 | [FA]3 [FA] [=EA]2 [EG]2 | [Ec]6 z2 || %8
w: His com- mand take|from His hand, The|Bread of Life re-|ceive.|
w: like Him be un-|til you see Your|Mas- ter face to|face.|
w: un- der- stand each|blest com- mand He|gives from hour to|hour.|
w: out the lost, the|tem- pest tossed, Go|forth His love to|tell.|
w: sin al- lure suc-|cess is sure, You|can- not have de-|feat.|
"^Refrain" [DB]2 [EB]2 [DB]2 [FA]>[EG] | D2 E>E D2 z2 | [EG]2 [FG]2 [=Ec]2 [EG]>[GB] | %11
w: |||
w: Hide God’s Word in your|heart, Hide God’s Word|your heart— His Word of|
w: |||
w: |||
w: |||
 [FA]6 [CF]2 | [FB]2 [Fc]2 [Fd]2 [FB]2 | [FA]2 [EG]2 [DF]4 | [FB]2 [FB]2 [FB]2 [Fd]>[Ec] | %15
w: ||||
w: love sent|from a- bove, Hide|God’s Word in|your heart. * * *|
w: ||||
w: ||||
w: ||||
 D2 E>E D2 z2 |] x8 |] %17
w: ||
w: ||
w: ||
w: ||
w: ||
V:2
 x8 | x8 | x8 | x8 | x8 | x8 | x8 | x8 || x8 | F6 x2 | x8 | x8 | x8 | x8 | x8 | B6 x2 |] x8 |] %17
w: |||||||||||||||||
w: |||||||||in||||||||
V:3
 [B,,F,]2 [B,,G,]2 [B,,F,]2 [B,,B,]>[B,,B,] | [B,,B,]6 [B,,F,]2 | [B,,B,]2 [D,B,]2 x4 | %3
w: ~ ~ ~ ~ ~|~ ~|~ ~|
 [C,F,]2 [F,C]2 x4 | [B,,B,]6 [B,,B,]2 | [E,B,]2 [E,B,]2 [E,G,]3 [E,B,] | %6
w: ~ ~|~ ~|~ ~ ~ ~|
 [B,,B,]2 [B,,B,]2 [B,,B,]2 [D,=B,]2 | [C,C]3 [C,C] [C,C]2 [C,B,]2 || [F,A,]6 z2 | %9
w: ~ ~ ~ ~|~ ~ ~ ~|~|
 [B,,F,]2 [B,,G,]2 [B,,F,]2 [B,,B,]>[B,,B,] | B,2 G,>G, F,2 z2 | %11
w: ~ ~ ~ ~ ~|~ in your heart,|
 [E,B,]2 [C,=B,]2 [C,C]2 [C,C]>[C,C] | [F,C]6 (F,E,) | [D,B,]2 [C,A,]2 [B,,B,]2 [D,B,]2 | %14
w: ~ ~ ~ ~ ~|~ ~ *|~ ~ ~ ~|
 (E,F,)(G,A,) B,4 | [F,D]2 [F,D]2 [F,D]2 [F,B,]>[F,A,] |] B,2 G,>G, F,2 z2 |] %17
w: ~ * ~ * ~|~ in your heart. *||
V:4
 x8 | x8 | x8 | x8 | x8 | x8 | x8 | x8 || x8 | x8 | B,,6 x2 | x8 | x6 A,2 | x8 | B,2 B,2 B,4 | %15
w: ||||||||||~||~||~ ~ ~|
 x8 |] B,,6 x2 |] %17
w: ||

